X: 23004
T: Last Glimpse Of Erin
R: barndance
M: 4/4
K: Gmajor
Bc|d3B G2AB|d2c2E2AB|c3AF2D2|G2e2 dc Bc|
d3B G2AB|d2c2E2AB|c2D2F2A2|G4 G2:|
Bc|d3Bg3f|a2g2 A2AB|c2d2 f3d|e2d2 BABc|
d3Bg3f|a2g2 A2AB|c2D2F2A2|G4 G2:|

